javascript.info/1-js/4-data-structures/7-array/stack.svg

<?xml version="1.0" encoding="UTF-8" standalone="no"?>
<svg width="90px" height="97px" viewBox="0 0 90 97" version="1.1" xmlns="http://www.w3.org/2000/svg" xmlns:xlink="http://www.w3.org/1999/xlink" xmlns:sketch="http://www.bohemiancoding.com/sketch/ns">
    <!-- Generator: Sketch 3.2.2 (9983) - http://www.bohemiancoding.com/sketch -->
    <title>Slice 1</title>
    <desc>Created with Sketch.</desc>
    <defs></defs>
    <g id="stack" stroke="none" stroke-width="1" fill="none" fill-rule="evenodd" sketch:type="MSPage">
        <path d="M17.9304166,50.5138979 C16.7833461,50.5138979 15.7302978,50.0718276 15.4068616,49.3963968 C15.0166696,48.5840173 15.8318418,47.741509 17.2271308,47.5141742 L38.2805745,44.0888141 C39.6749232,43.8620271 41.1209842,44.3369651 41.5121164,45.1493446 C41.9013682,45.9622719 41.086196,46.8047801 39.690907,47.0315671 L18.6374633,50.4569273 C18.4014676,50.4952729 18.1635915,50.5138979 17.9304166,50.5138979 L17.9304166,50.5138979 Z" id="Shape-3" fill="#000000" sketch:type="MSShapeGroup" transform="translate(28.459289, 47.273049) rotate(-21.000000) translate(-28.459289, -47.273049) "></path>
        <path d="M24.9304166,55.5138979 C23.7833461,55.5138979 22.7302978,55.0718276 22.4068616,54.3963968 C22.0166696,53.5840173 22.8318418,52.741509 24.2271308,52.5141742 L45.2805745,49.0888141 C46.6749232,48.8620271 48.1209842,49.3369651 48.5121164,50.1493446 C48.9013682,50.9622719 48.086196,51.8047801 46.690907,52.0315671 L25.6374633,55.4569273 C25.4014676,55.4952729 25.1635915,55.5138979 24.9304166,55.5138979 L24.9304166,55.5138979 Z" id="Shape-4" fill="#000000" sketch:type="MSShapeGroup" transform="translate(35.459289, 52.273049) rotate(-21.000000) translate(-35.459289, -52.273049) "></path>
        <path d="M31.9304166,59.5138979 C30.7833461,59.5138979 29.7302978,59.0718276 29.4068616,58.3963968 C29.0166696,57.5840173 29.8318418,56.741509 31.2271308,56.5141742 L52.2805745,53.0888141 C53.6749232,52.8620271 55.1209842,53.3369651 55.5121164,54.1493446 C55.9013682,54.9622719 55.086196,55.8047801 53.690907,56.0315671 L32.6374633,59.4569273 C32.4014676,59.4952729 32.1635915,59.5138979 31.9304166,59.5138979 L31.9304166,59.5138979 Z" id="Shape-5" fill="#000000" sketch:type="MSShapeGroup" transform="translate(42.459289, 56.273049) rotate(-21.000000) translate(-42.459289, -56.273049) "></path>
        <path d="M89.999,67.92075 C89.999,67.52575 89.787,67.16175 89.445,66.96475 L85.798,64.85975 L89.445,62.75275 C89.787,62.55575 89.999,62.19075 89.999,61.79675 C89.999,61.40075 89.787,61.03775 89.445,60.84075 L38.02,31.14775 C37.678,30.95075 37.257,30.95075 36.915,31.14775 L0.552,52.14275 C0.21,52.33975 1.77635684e-15,52.70475 1.77635684e-15,53.09975 C1.77635684e-15,53.49475 0.21,53.85875 0.552,54.05575 L4.2,56.16275 L0.552,58.26875 C0.21,58.46575 1.77635684e-15,58.83075 1.77635684e-15,59.22475 C1.77635684e-15,59.62075 0.21,59.98475 0.552,60.18275 L4.201,62.28875 L0.552,64.39475 C0.21,64.59175 0,64.95675 0,65.35175 C0,65.74675 0.21,66.11075 0.552,66.30775 L51.979,95.99875 C52.15,96.09775 52.34,96.14675 52.531,96.14675 C52.722,96.14675 52.913,96.09675 53.084,95.99875 L89.446,75.00475 C89.788,74.80775 90,74.44275 90,74.04775 C90,73.65275 89.788,73.28775 89.446,73.09175 L85.798,70.98475 L89.446,68.87875 C89.787,68.68075 89.999,68.31575 89.999,67.92075 L89.999,67.92075 Z M37.467,33.37975 L86.684,61.79575 L52.531,81.51575 L3.313,53.09975 L37.467,33.37975 L37.467,33.37975 Z M83.737,72.34575 L86.684,74.04775 L52.531,93.76775 L3.313,65.35175 L6.409,63.56375 L51.979,89.87375 C52.15,89.97275 52.34,90.02075 52.531,90.02075 C52.722,90.02075 52.913,89.97175 53.084,89.87375 L83.605,72.25075 C83.646,72.28475 83.689,72.31875 83.737,72.34575 L83.737,72.34575 Z M52.531,87.64075 L3.369,59.25775 L3.313,59.22475 L6.409,57.43775 L51.979,83.74775 C52.15,83.84675 52.34,83.89575 52.531,83.89575 C52.722,83.89575 52.913,83.84575 53.084,83.74775 L83.685,66.07975 C83.774,66.20075 83.886,66.30675 84.024,66.38675 L86.685,67.92175 L52.531,87.64075 L52.531,87.64075 Z" id="Shape" fill="#000000" sketch:type="MSShapeGroup"></path>
        <path d="M36.5349323,0.361 C36.3172807,0.116 36.0511792,0 35.7686793,0 C35.2044249,0 34.5730861,0.463 34.1251114,1.295 L27.2914468,13.967 C26.6936502,15.077 27.0767767,16.382 27.8847711,16.382 C27.9853977,16.382 28.0934781,16.362 28.2067762,16.319 L31.5252181,15.036 L31.5744133,40.628 L40.6710587,34.6514359 L40.6710585,11.484 L43.9909911,10.199 C45.0076925,9.805 45.3073362,8.883 44.6536359,8.148 L36.5349323,0.361 Z" id="Shape" fill="#000000" sketch:type="MSShapeGroup" transform="translate(36.000000, 20.314000) scale(1, -1) translate(-36.000000, -20.314000) "></path>
        <path d="M59.5349323,17.361 C59.3172807,17.116 59.0511792,17 58.7686793,17 C58.2044249,17 57.5730861,17.463 57.1251114,18.295 L50.2914468,30.967 C49.6936502,32.077 50.0767767,33.382 50.8847711,33.382 C50.9853977,33.382 51.0934781,33.362 51.2067762,33.319 L54.5252181,32.036 L54.5744133,57.628 L63.6710587,63.2197266 L63.6710585,28.484 L66.9909911,27.199 C68.0076925,26.805 68.3073362,25.883 67.6536359,25.148 L59.5349323,17.361 Z" id="Shape-2" fill="#000000" sketch:type="MSShapeGroup"></path>
    </g>
</svg>

<svg width="90" height="97" viewBox="0 0 90 97" xmlns="http://www.w3.org/2000/svg"><title>Slice 1</title><desc>Created with Sketch.</desc><path d="M19.785 54.07c-1.07.41-2.213.374-2.757-.14-.655-.62-.196-1.7 1.026-2.41l18.438-10.737c1.22-.71 2.742-.786 3.398-.167.654.62.195 1.7-1.027 2.41L20.425 53.763c-.207.12-.422.222-.64.306zm7 5c-1.07.41-2.213.374-2.757-.14-.655-.62-.196-1.7 1.026-2.41l18.438-10.737c1.22-.71 2.742-.786 3.398-.167.654.62.195 1.7-1.027 2.41L27.425 58.763c-.207.12-.422.222-.64.306zm7 4c-1.07.41-2.213.374-2.757-.14-.655-.62-.196-1.7 1.026-2.41l18.438-10.737c1.22-.71 2.742-.786 3.398-.167.654.62.195 1.7-1.027 2.41L34.425 62.763c-.207.12-.422.222-.64.306zM90 67.92c0-.394-.213-.758-.555-.955l-3.647-2.105 3.647-2.107c.342-.197.554-.562.554-.956 0-.396-.216-.76-.558-.956L38.02 31.15c-.342-.197-.763-.197-1.105 0L.552 52.143C.21 52.34 0 52.705 0 53.1c0 .395.21.76.552.956L4.2 56.163.552 58.27c-.342.196-.552.56-.552.955 0 .396.21.76.552.958l3.65 2.106-3.65 2.102C.21 64.59 0 64.956 0 65.35c0 .396.21.76.552.957l51.427 29.69c.17.1.36.15.55.15.19 0 .38-.05.55-.15l36.363-20.993c.342-.197.554-.562.554-.957 0-.395-.213-.76-.555-.956l-3.648-2.104 3.648-2.106c.34-.2.553-.565.553-.96zM37.466 33.38l49.217 28.416-34.153 19.72L3.314 53.1l34.154-19.72zm46.27 38.966l2.947 1.702-34.153 19.72L3.314 65.352l3.096-1.788 45.57 26.31c.17.1.36.147.55.147.192 0 .383-.045.554-.143l30.52-17.623c.042.035.085.07.133.096zM52.53 87.64L3.37 59.26l-.057-.033L6.41 57.44l45.57 26.31c.17.1.36.148.55.148.19 0 .382-.05.553-.148l30.6-17.668c.09.12.202.227.34.307l2.66 1.532-34.153 19.72zM36.535 40.267c-.218.245-.484.36-.766.36-.57 0-1.2-.462-1.648-1.294L27.29 26.66c-.596-1.11-.213-2.414.595-2.414.1 0 .208.02.322.063l3.318 1.28.05-25.59 9.096 5.975v23.167l3.32 1.285c1.02.392 1.32 1.314.667 2.05l-8.12 7.786zm23-22.907c-.218-.244-.484-.36-.766-.36-.57 0-1.2.463-1.648 1.295L50.29 30.967c-.596 1.11-.213 2.415.595 2.415.1 0 .208-.02.322-.063l3.318-1.287.05 25.592 9.096 5.592V28.483l3.32-1.285c1.02-.396 1.32-1.318.667-2.053l-8.12-7.787z" fill-rule="evenodd"/></svg>
